svg/icon/flo.svg

<svg xmlns="http://www.w3.org/2000/svg" xmlns:xlink="http://www.w3.org/1999/xlink" width="32" height="32" viewBox="0 0 32 32">
  <defs>
    <linearGradient id="flo-c" x1="50%" x2="50%" y1="0%" y2="100%">
      <stop offset="0%" stop-color="#FFF" stop-opacity=".5"/>
      <stop offset="100%" stop-opacity=".5"/>
    </linearGradient>
    <circle id="flo-b" cx="16" cy="15" r="15"/>
    <filter id="flo-a" width="111.7%" height="111.7%" x="-5.8%" y="-4.2%" filterUnits="objectBoundingBox">
      <feOffset dy=".5" in="SourceAlpha" result="shadowOffsetOuter1"/>
      <feGaussianBlur in="shadowOffsetOuter1" result="shadowBlurOuter1" stdDeviation=".5"/>
      <feComposite in="shadowBlurOuter1" in2="SourceAlpha" operator="out" result="shadowBlurOuter1"/>
      <feColorMatrix in="shadowBlurOuter1" values="0 0 0 0 0   0 0 0 0 0   0 0 0 0 0  0 0 0 0.199473505 0"/>
    </filter>
    <path id="flo-e" d="M15.9802979,19.2968824 C14.8353163,20.6037709 14.8070755,22.3966941 15.9932554,23.5907404 C17.1141161,22.5102517 17.1154451,20.4975627 15.9802979,19.2968824 M15.9809624,7.10484896 C13.2760256,10.2334728 13.3783569,13.9309906 15.9792347,17.0036162 C18.6274241,13.8680331 18.6337368,10.1880758 15.9809624,7.10484896 M17.8930305,16.1302759 C20.1423934,13.829205 22.8878641,13.303757 26,13.8022139 C24.9968204,16.101984 23.5823219,17.9393286 21.0821143,18.8998208 C21.634172,18.467053 22.1373898,18.112852 22.5924986,17.7068151 C23.3513454,17.0296317 23.8899805,16.2099483 24.1588329,15.2248064 C24.2437546,14.913531 24.1335823,14.8264441 23.8477854,14.7803967 C22.8006166,14.6117512 21.8188336,14.8317773 20.879445,15.2600574 C19.2982261,15.9808819 18.0123063,17.0887519 16.8051285,18.2943751 C16.7838649,18.3157078 16.7744956,18.3484874 16.7371513,18.4172984 C19.1020024,18.5064665 20.9029679,19.4510242 21.9704036,21.6324888 C20.5841459,21.9398619 19.3161674,21.8750183 18.139689,21.1189429 C19.0257191,21.3908699 19.9104866,21.5893681 20.8793121,21.1295442 C20.7605014,20.929485 20.690132,20.694565 20.5306546,20.5644225 C20.0928225,20.2073598 19.6452889,19.8456793 19.1507095,19.574923 C18.3850184,19.1557483 17.5300864,18.9600467 16.5843187,18.7660361 C17.8610686,21.0029137 17.5405189,23.0340738 15.9796334,25 C15.2535459,24.0849699 14.7456767,23.128445 14.6067319,21.9982667 C14.4671892,20.8642511 14.7860112,19.8342975 15.3329524,18.8486353 C14.1224521,18.6540394 11.5118063,20.0547789 11.1079297,21.1351375 C12.0445939,21.6090098 12.9589977,21.3928861 13.9003798,21.0425223 C13.2237967,21.7392174 11.2747165,22.0244123 10.0040135,21.6051725 C11.058691,19.4558371 12.8508853,18.5084827 15.2686962,18.4176235 C15.0912111,18.2381816 14.9592435,18.0990638 14.8211627,17.9659945 C13.8152587,16.996722 12.7461617,16.1051709 11.4895459,15.4575151 C10.4627105,14.9282948 9.38610486,14.5957517 8.20284867,14.7731123 C8.06257496,14.7941198 7.92436118,14.8282002 7.72813747,14.8677437 C8.08822425,16.7179009 9.32856008,17.8649243 10.8616699,18.8323756 C9.25054903,18.6369992 6.52973092,15.819911 6,13.7981815 C9.1091457,13.2938711 11.8706306,13.8457248 14.1105577,16.1966154 C12.2570311,12.0697768 13.2430004,8.41713576 15.9793012,5 C18.6946705,8.39092514 19.6911387,12.0174206 17.8930305,16.1302759"/>
    <filter id="flo-d" width="117.5%" height="117.5%" x="-8.8%" y="-6.2%" filterUnits="objectBoundingBox">
      <feOffset dy=".5" in="SourceAlpha" result="shadowOffsetOuter1"/>
      <feGaussianBlur in="shadowOffsetOuter1" result="shadowBlurOuter1" stdDeviation=".5"/>
      <feColorMatrix in="shadowBlurOuter1" values="0 0 0 0 0   0 0 0 0 0   0 0 0 0 0  0 0 0 0.204257246 0"/>
    </filter>
  </defs>
  <g fill="none" fill-rule="evenodd">
    <use fill="#000" filter="url(#flo-a)" xlink:href="#flo-b"/>
    <use fill="#2080A2" xlink:href="#flo-b"/>
    <use fill="url(#flo-c)" style="mix-blend-mode:soft-light" xlink:href="#flo-b"/>
    <circle cx="16" cy="15" r="14.5" stroke="#000" stroke-opacity=".097"/>
    <g>
      <use fill="#000" filter="url(#flo-d)" xlink:href="#flo-e"/>
      <use fill="#FFF" xlink:href="#flo-e"/>
    </g>
  </g>
</svg>

<svg height="32" width="32" xmlns="http://www.w3.org/2000/svg" xmlns:xlink="http://www.w3.org/1999/xlink"><defs><linearGradient id="c" x1="50%" x2="50%" y1="0%" y2="100%"><stop offset="0" stop-color="#fff" stop-opacity=".5"/><stop offset="1" stop-opacity=".5"/></linearGradient><circle id="b" cx="16" cy="15" r="15"/><filter id="a" height="111.7%" width="111.7%" x="-5.8%" y="-4.2%"><feOffset dy=".5" in="SourceAlpha" result="shadowOffsetOuter1"/><feGaussianBlur in="shadowOffsetOuter1" result="shadowBlurOuter1" stdDeviation=".5"/><feComposite in="shadowBlurOuter1" in2="SourceAlpha" operator="out" result="shadowBlurOuter1"/><feColorMatrix in="shadowBlurOuter1" values="0 0 0 0 0 0 0 0 0 0 0 0 0 0 0 0 0 0 0.199473505 0"/></filter><path id="e" d="M15.98 19.297c-1.145 1.307-1.173 3.1.013 4.294 1.121-1.08 1.122-3.093-.013-4.294m.001-12.192c-2.705 3.128-2.603 6.826-.002 9.899 2.648-3.136 2.655-6.816.002-9.9m1.912 9.026c2.25-2.3 4.995-2.826 8.107-2.328-1.003 2.3-2.418 4.137-4.918 5.098.552-.433 1.055-.787 1.51-1.193.76-.677 1.298-1.497 1.567-2.482.085-.311-.025-.399-.311-.445-1.047-.168-2.03.052-2.969.48-1.58.72-2.867 1.829-4.074 3.034-.021.022-.03.054-.068.123 2.365.09 4.166 1.034 5.233 3.215-1.386.308-2.654.243-3.83-.513.886.272 1.77.47 2.74.01-.12-.2-.19-.434-.35-.565-.437-.357-.885-.718-1.38-.99-.765-.418-1.62-.614-2.566-.808 1.277 2.237.957 4.268-.604 6.234-.726-.915-1.234-1.872-1.373-3.002-.14-1.134.179-2.164.726-3.15-1.21-.194-3.821 1.207-4.225 2.287.937.474 1.851.258 2.792-.092-.676.696-2.625.981-3.896.562 1.055-2.15 2.847-3.097 5.265-3.187-.178-.18-.31-.319-.448-.452-1.006-.97-2.075-1.86-3.331-2.508-1.027-.53-2.104-.862-3.287-.685-.14.021-.279.055-.475.095.36 1.85 1.6 2.997 3.134 3.964C9.25 18.637 6.53 15.82 6 13.798c3.11-.504 5.87.048 8.11 2.399-1.853-4.127-.867-7.78 1.87-11.197 2.715 3.39 3.711 7.017 1.913 11.13"/><filter id="d" height="117.5%" width="117.5%" x="-8.8%" y="-6.2%"><feOffset dy=".5" in="SourceAlpha" result="shadowOffsetOuter1"/><feGaussianBlur in="shadowOffsetOuter1" result="shadowBlurOuter1" stdDeviation=".5"/><feColorMatrix in="shadowBlurOuter1" values="0 0 0 0 0 0 0 0 0 0 0 0 0 0 0 0 0 0 0.204257246 0"/></filter></defs><g fill="none" fill-rule="evenodd"><use fill="#000" filter="url(#a)" xlink:href="#b"/><use fill="#2080a2" xlink:href="#b"/><use fill="url(#c)" xlink:href="#b"/><circle cx="16" cy="15" r="14.5" stroke="#000" stroke-opacity=".097"/><use fill="#000" filter="url(#d)" xlink:href="#e"/><use fill="#fff" xlink:href="#e"/></g></svg>
